X: 20822
T: Johnny Wilmot's Fiddle
R: reel
M: 4/4
K: Edorian
|:Be e2 edBe|dBAB defd|AD D2 FEDF|ABdA {d}BAFd|
Be e2 edBe|dBAB defd|AD D2 FEDF|ABdF E3A:|
Beef gfeg|fedf edBA|(3Bcd Ad FDDF|ABdA BAFd|
Beef gfeg|fedf edBA|(3Bcd Ad FDDF|ABdF E3d|
Beef gfeg|fedf edBA|(3Bcd Ad FDDF|ABdA {d}BAFd|
Be e2 edBe|dBAB DEFd|AD D2 FEDF|ABdF E4||

